X: 1
T: Larid\'e du Croisic   [Em]
O: Br\'etagne
R: larid\'e
S: handout at NEFFA 2016 from Mark Vidor p.3
Z: 2016 John Chambers <jc:trillian.mit.edu>
M: 4/4
L: 1/8
K: Em
|:\
"Em"EB BB Bc B2 | "D"A>B AF "Em"GA BG |\
"Em"EB BB Bc B2 | "D"A>B AF "Em"GF E2 :|
|:\
"Em"E2G2 BB "D"A2 | "D"A>B AF GA "Em"BG |\
"Em"E2G2 BB "D"A2 | "D"A>B AF GF E2 :|
